icons/circle/48/steam_icon_287980.svg

<svg xmlns="http://www.w3.org/2000/svg" viewBox="0 0 48 48">
 <defs>
  <linearGradient id="linearGradient4158" y1="47" x2="0" y2="1" gradientUnits="userSpaceOnUse">
   <stop style="stop-color:#d5d5d5;stop-opacity:1"/>
   <stop offset="1" style="stop-color:#dfdfdf;stop-opacity:1"/>
  </linearGradient>
 </defs>
 <g>
  <path d="m 36.31 5 c 5.859 4.062 9.688 10.831 9.688 18.5 c 0 12.426 -10.07 22.5 -22.5 22.5 c -7.669 0 -14.438 -3.828 -18.5 -9.688 c 1.037 1.822 2.306 3.499 3.781 4.969 c 4.085 3.712 9.514 5.969 15.469 5.969 c 12.703 0 23 -10.298 23 -23 c 0 -5.954 -2.256 -11.384 -5.969 -15.469 c -1.469 -1.475 -3.147 -2.744 -4.969 -3.781 z m 4.969 3.781 c 3.854 4.113 6.219 9.637 6.219 15.719 c 0 12.703 -10.297 23 -23 23 c -6.081 0 -11.606 -2.364 -15.719 -6.219 c 4.16 4.144 9.883 6.719 16.219 6.719 c 12.703 0 23 -10.298 23 -23 c 0 -6.335 -2.575 -12.06 -6.719 -16.219 z" style="opacity:0.05"/>
  <path d="m 41.28 8.781 c 3.712 4.085 5.969 9.514 5.969 15.469 c 0 12.703 -10.297 23 -23 23 c -5.954 0 -11.384 -2.256 -15.469 -5.969 c 4.113 3.854 9.637 6.219 15.719 6.219 c 12.703 0 23 -10.298 23 -23 c 0 -6.081 -2.364 -11.606 -6.219 -15.719 z" style="opacity:0.1"/>
  <path d="m 31.25 2.375 c 8.615 3.154 14.75 11.417 14.75 21.13 c 0 12.426 -10.07 22.5 -22.5 22.5 c -9.708 0 -17.971 -6.135 -21.12 -14.75 a 23 23 0 0 0 44.875 -7 a 23 23 0 0 0 -16 -21.875 z" style="opacity:0.2"/>
 </g>
 <path d="M 15,2.828 C 6.77,6.331 1,14.491 1,23.998 c 0,9.509 5.77,17.669 14,21.17 l 18,0 C 41.23,41.665 47,33.505 47,23.998 47,14.489 41.23,6.329 33,2.828 Z" style="fill:url(#linearGradient4158);fill-opacity:1"/>
 <path d="M 27,1.201 C 21,12 21,36 27,46.799 c 2.102,-0.274 4.116,-0.825 6,-1.627 L 33,2.832 C 31.116,2.03 29.102,1.479 27,1.205 Z" style="fill:#e9bb38;opacity:1;fill-opacity:1;stroke:none;fill-rule:nonzero"/>
 <path d="M 24,1 C 22.982,1 21.98,1.073 21,1.201 15,12 15,36 21,46.799 21.983,46.927 22.982,47 24,47 c 1.018,0 2.02,-0.073 3,-0.201 L 27,1.201 C 26.017,1.073 25.018,1 24,1 Z" style="fill:#3590c1;opacity:1;fill-opacity:1;stroke:none;fill-rule:nonzero"/>
 <path d="m 21 1.201 c -2.102 0.274 -4.116 0.825 -6 1.627 l 0 42.34 c 1.884 0.802 3.898 1.353 6 1.627 l 0 -45.598 z" style="fill:#da573e;opacity:1;fill-opacity:1;stroke:none;fill-rule:nonzero"/>
 <g>
  <path d="m 40.03 7.531 c 3.712 4.084 5.969 9.514 5.969 15.469 0 12.703 -10.297 23 -23 23 c -5.954 0 -11.384 -2.256 -15.469 -5.969 4.178 4.291 10.01 6.969 16.469 6.969 c 12.703 0 23 -10.298 23 -23 0 -6.462 -2.677 -12.291 -6.969 -16.469 z" style="opacity:0.1"/>
 </g>
 <rect y="13" x="13" height="24" width="24" style="fill:#000;opacity:0.1;fill-opacity:1;stroke:none;fill-rule:nonzero"/>
 <rect width="24" height="24" x="12" y="12" style="fill:#353535;opacity:1;fill-opacity:1;stroke:none;fill-rule:nonzero"/>
 <rect width="16" height="16" x="17" y="17" style="fill:#000;opacity:0.1;fill-opacity:1;stroke:none;fill-rule:nonzero"/>
 <rect y="16" x="16" height="16" width="16" style="fill:#f9f9f9;opacity:1;fill-opacity:1;stroke:none;fill-rule:nonzero"/>
</svg>

<svg xmlns="http://www.w3.org/2000/svg" viewBox="0 0 48 48">
  <defs>
    <linearGradient id="a" y1="47" x2="0" y2="1" gradientUnits="userSpaceOnUse">
      <stop stop-color="#d5d5d5"/>
      <stop offset="1" stop-color="#dfdfdf"/>
    </linearGradient>
  </defs>
  <path d="M36.31 5c5.859 4.062 9.688 10.831 9.688 18.5 0 12.426-10.07 22.5-22.5 22.5-7.669 0-14.438-3.828-18.5-9.688a23.24 23.24 0 0 0 3.781 4.969 22.923 22.923 0 0 0 15.469 5.969c12.703 0 23-10.298 23-23a22.92 22.92 0 0 0-5.969-15.469A23.216 23.216 0 0 0 36.31 5zm4.969 3.781A22.911 22.911 0 0 1 47.498 24.5c0 12.703-10.297 23-23 23a22.909 22.909 0 0 1-15.719-6.219C12.939 45.425 18.662 48 24.998 48c12.703 0 23-10.298 23-23 0-6.335-2.575-12.06-6.719-16.219z" opacity=".05"/>
  <path d="M41.28 8.781a22.923 22.923 0 0 1 5.969 15.469c0 12.703-10.297 23-23 23A22.92 22.92 0 0 1 8.78 41.281 22.911 22.911 0 0 0 24.499 47.5c12.703 0 23-10.298 23-23A22.909 22.909 0 0 0 41.28 8.781z" opacity=".1"/>
  <path d="M31.25 2.375C39.865 5.529 46 13.792 46 23.505c0 12.426-10.07 22.5-22.5 22.5-9.708 0-17.971-6.135-21.12-14.75a23 23 0 0 0 44.875-7 23 23 0 0 0-16-21.875z" opacity=".2"/>
  <path d="M15 2.828C6.77 6.331 1 14.491 1 23.998c0 9.509 5.77 17.669 14 21.17h18c8.23-3.503 14-11.663 14-21.17 0-9.509-5.77-17.669-14-21.17z" fill="url(#a)"/>
  <path d="M27 1.201C21 12 21 36 27 46.799a22.839 22.839 0 0 0 6-1.627V2.832a22.839 22.839 0 0 0-6-1.627z" fill="#e9bb38"/>
  <path d="M24 1c-1.018 0-2.02.073-3 .201C15 12 15 36 21 46.799c.983.128 1.982.201 3 .201s2.02-.073 3-.201V1.201A23.194 23.194 0 0 0 24 1z" fill="#3590c1"/>
  <path d="M21 1.201a22.839 22.839 0 0 0-6 1.627v42.34a22.839 22.839 0 0 0 6 1.627V1.197z" fill="#da573e"/>
  <path d="M40.03 7.531A22.922 22.922 0 0 1 45.999 23c0 12.703-10.297 23-23 23A22.92 22.92 0 0 1 7.53 40.031C11.708 44.322 17.54 47 23.999 47c12.703 0 23-10.298 23-23 0-6.462-2.677-12.291-6.969-16.469z" opacity=".1"/>
  <path opacity=".1" d="M13 13h24v24H13z"/>
  <path fill="#353535" d="M12 12h24v24H12z"/>
  <path opacity=".1" d="M17 17h16v16H17z"/>
  <path fill="#f9f9f9" d="M16 16h16v16H16z"/>
</svg>
